!!!COM: Makoto
!!!OTL: 明日がくるなら
**kern	**text	**kern	**text	**kern	**kern	**text	**kern	**text	**kern	**text
*part6	*part6	*part5	*part5	*part4	*part3	*part3	*part2	*part2	*part1	*part1
*staff6	*staff6	*staff5	*staff5	*staff4	*staff3	*staff3	*staff2	*staff2	*staff1	*staff1
*I"Makoto	*	*I"Yoshiki	*	*I"Tomo	*I"Nami	*	*I"Mayu	*	*I"钢琴	*
*	*	*	*	*	*	*	*	*	*I'Pno.	*
*clefF4	*	*clefG2	*	*clefG2	*clefG2	*	*clefG2	*	*clefG2	*
*	*	*ITrd4c7	*	*ITrd1c2	*	*	*	*	*	*
*k[b-e-a-]	*	*k[b-e-a-d-]	*	*k[b-e-a-d-g-]	*k[b-e-a-]	*	*k[b-e-a-]	*	*k[b-e-a-]	*
*M4/4	*	*M4/4	*	*M4/4	*M4/4	*	*M4/4	*	*M4/4	*
*MM90	*	*MM90	*	*MM90	*MM90	*	*MM90	*	*MM90	*
=1	=1	=1	=1	=1	=1	=1	=1	=1	=1	=1
1r	.	1r	.	1r	2.r	.	1r	.	1r	.
.	.	.	.	.	8r	.	.	.	.	.
.	.	.	.	.	8f	.	.	.	.	.
=2	=2	=2	=2	=2	=2	=2	=2	=2	=2	=2
1AA-	.	1c	.	1e-	4g	.	1g	.	1r	.
.	.	.	.	.	8b-L	.	.	.	.	.
.	.	.	.	.	[8gJ	.	.	.	.	.
.	.	.	.	.	4g]	.	.	.	.	.
.	.	.	.	.	8r	.	.	.	.	.
.	.	.	.	.	8g	.	.	.	.	.
=3	=3	=3	=3	=3	=3	=3	=3	=3	=3	=3
1GG	.	1B-	.	1e-	8fL	.	1g	.	1r	.
.	.	.	.	.	8e-	.	.	.	.	.
.	.	.	.	.	8f	.	.	.	.	.
.	.	.	.	.	[8gJ	.	.	.	.	.
.	.	.	.	.	4g]	.	.	.	.	.
.	.	.	.	.	8r	.	.	.	.	.
.	.	.	.	.	8B-	.	.	.	.	.
=4	=4	=4	=4	=4	=4	=4	=4	=4	=4	=4
2FF	.	2A-	.	2c	8e-L	.	2e-	.	1r	.
.	.	.	.	.	8d	.	.	.	.	.
.	.	.	.	.	8e-	.	.	.	.	.
.	.	.	.	.	[8fJ	.	.	.	.	.
2FF	.	2c	.	2e-	8fL]	.	2a-	.	.	.
.	.	.	.	.	8e-	.	.	.	.	.
.	.	.	.	.	8f	.	.	.	.	.
.	.	.	.	.	[8gJ	.	.	.	.	.
=5	=5	=5	=5	=5	=5	=5	=5	=5	=5	=5
[4.EE-	.	8r	.	4r	4.g]	.	4.r	.	1r	.
.	.	2B-	.	.	.	.	.	.	.	.
.	.	.	.	4.d	.	.	.	.	.	.
4EE-]	.	.	.	.	8dd	.	4g	.	.	.
.	.	.	.	.	8ee-L	.	.	.	.	.
8r	.	8r	.	8r	8dd	.	8r	.	.	.
8EE-L	.	4B-	.	4d	8b-	.	4g	.	.	.
8FFJ	.	.	.	.	8fJ	.	.	.	.	.
=6	=6	=6	=6	=6	=6	=6	=6	=6	=6	=6
1AA-	.	1c	.	1e-	4g	.	8g	.	1r	.
.	.	.	.	.	.	.	8r	.	.	.
.	.	.	.	.	8b-L	.	4r	.	.	.
.	.	.	.	.	[8gJ	.	.	.	.	.
.	.	.	.	.	4.g]	.	2r	.	.	.
.	.	.	.	.	8g	.	.	.	.	.
=7	=7	=7	=7	=7	=7	=7	=7	=7	=7	=7
1GG	.	1B-	.	1e-	8fL	.	1g	.	1r	.
.	.	.	.	.	8e-	.	.	.	.	.
.	.	.	.	.	8f	.	.	.	.	.
.	.	.	.	.	[8gJ	.	.	.	.	.
.	.	.	.	.	4.g]	.	.	.	.	.
.	.	.	.	.	8c	.	.	.	.	.
=8	=8	=8	=8	=8	=8	=8	=8	=8	=8	=8
2FF	.	2A-	.	2c	8e-L	.	2e-	.	1r	.
.	.	.	.	.	8d	.	.	.	.	.
.	.	.	.	.	8e-	.	.	.	.	.
.	.	.	.	.	[8fJ	.	.	.	.	.
2GG	.	2B-	.	2d	8fL]	.	2f	.	.	.
.	.	.	.	.	8g	.	.	.	.	.
.	.	.	.	.	8b-	.	.	.	.	.
.	.	.	.	.	[8ccJ	.	.	.	.	.
=9	=9	=9	=9	=9	=9	=9	=9	=9	=9	=9
1AA-	.	1e-	.	1g	1cc]	.	8A-L	.	1r	.
.	.	.	.	.	.	.	8e-	.	.	.
.	.	.	.	.	.	.	8b-	.	.	.
.	.	.	.	.	.	.	[8ccJ	.	.	.
.	.	.	.	.	.	.	8ccL]	.	.	.
.	.	.	.	.	.	.	8ee-	.	.	.
.	.	.	.	.	.	.	8ff	.	.	.
.	.	.	.	.	.	.	8ggJ	.	.	.
=10	=10	=10	=10	=10	=10	=10	=10	=10	=10	=10
2AA-	.	2e-	.	2g	2cc	.	2gg	.	2r	.
2r	.	2r	.	2r	2r	.	4r	.	4r	.
.	.	.	.	.	.	.	8r	.	8r	.
.	.	.	.	.	.	.	8B-	さ	8B-	さ
=11	=11	=11	=11	=11	=11	=11	=11	=11	=11	=11
2C	.	2c	.	2e-	2g	.	4g	よ	4g	よ
.	.	.	.	.	.	.	8b-L	な　　	8b-L	な　　
.	.	.	.	.	.	.	[8gJ	ら	[8gJ	ら
2BB-	.	2B-	.	2d	2g	.	4g]	ー	4g]	ー
.	.	.	.	.	.	.	8r	.	8r	.
.	.	.	.	.	.	.	8f	は	8f	は
=12	=12	=12	=12	=12	=12	=12	=12	=12	=12	=12
2AA-	.	2A-	.	2c	2f	.	8fL	い　	8fL	い　
.	.	.	.	.	.	.	8e-	わ	8e-	わ
.	.	.	.	.	.	.	8f	な	8f	な
.	.	.	.	.	.	.	8e-J	い	8e-J	い
2GG	.	2B-	.	2e-	2e-	.	8fL	で	8fL	で
.	.	.	.	.	.	.	8e-	お	8e-	お
.	.	.	.	.	.	.	8f	く	8f	く
.	.	.	.	.	.	.	8e-J	よ	8e-J	よ
=13	=13	=13	=13	=13	=13	=13	=13	=13	=13	=13
2FF	.	2A-	.	2c	2f	.	4g	だ	4g	だ
.	.	.	.	.	.	.	8b-L	っ	8b-L	っ
.	.	.	.	.	.	.	[8gJ	て	[8gJ	て
2BB-	.	2B-	.	2d	2f	.	4g]	ー	4g]	ー
.	.	.	.	.	.	.	8r	.	8r	.
.	.	.	.	.	.	.	8B-	め	8B-	め
=14	=14	=14	=14	=14	=14	=14	=14	=14	=14	=14
2GG	.	2B-	.	2d	2f	.	4f	を	4f	を
.	.	.	.	.	.	.	4g	と	4g	と
2C	.	2B-	.	2eX	2g	.	4en	じ	4en	じ
.	.	.	.	.	.	.	4b-	る	4b-	る
=15	=15	=15	=15	=15	=15	=15	=15	=15	=15	=15
2FF	.	8r	.	4r	4.r	.	4.a-	た	4.a-	た
.	.	4.A-	.	.	.	.	.	.	.	.
.	.	.	.	4c	.	.	.	.	.	.
.	.	.	.	.	8e-	.	8g	び	8g	び
2BB-	.	8r	.	4r	4.r	.	4f	に	4f	に
.	.	4.B-	.	.	.	.	.	.	.	.
.	.	.	.	4e-	.	.	4cc	う	4cc	う
.	.	.	.	.	8f	.	.	.	.	.
=16	=16	=16	=16	=16	=16	=16	=16	=16	=16	=16
2GG	.	8r	.	4r	4.r	.	4.b-	つ	4.b-	つ
.	.	4.B-	.	.	.	.	.	.	.	.
.	.	.	.	4d	.	.	.	.	.	.
.	.	.	.	.	8f	.	8f	る	8f	る
2C	.	8r	.	4r	4.r	.	4e-	よ	4e-	よ
.	.	4.B-	.	.	.	.	.	.	.	.
.	.	.	.	4e-	.	.	8e-L	い	8e-L	い
.	.	.	.	.	8g	.	8fJ	つ	8fJ	つ
=17	=17	=17	=17	=17	=17	=17	=17	=17	=17	=17
1AA-	.	4r	.	2r	2.r	.	4g	も	4g	も
.	.	2.f	.	.	.	.	8a-L	の	8a-L	の
.	.	.	.	.	.	.	[8fJ	き	[8fJ	き
.	.	.	.	2a-	.	.	8fL]	ー	8fL]	ー
.	.	.	.	.	.	.	8e-	み	8e-	み
.	.	.	.	.	4cc	.	8e-	が	8e-	が
.	.	.	.	.	.	.	[8gJ	ー	[8gJ	ー
=18	=18	=18	=18	=18	=18	=18	=18	=18	=18	=18
4GG	.	2f	.	2a-	2cc	.	2g]	.	2g]	.
4GG	.	.	.	.	.	.	.	.	.	.
4GG	.	4g	.	4bX	4dd	.	4r	.	4r	.
4GG	.	4r	.	4r	4r	.	8gL	あ	8gL	あ
.	.	.	.	.	.	.	[8ddJ	し	[8ddJ	し
=19	=19	=19	=19	=19	=19	=19	=19	=19	=19	=19
4.AA-	.	4.c	.	4.e-	4.a-	.	4dd]	ー	4dd]	ー
.	.	.	.	.	.	.	8ee-L	た	8ee-L	た
2BB-	.	4.d	.	4.f	4.b-	.	[8ccJ	が	[8ccJ	が
.	.	.	.	.	.	.	4cc]	ー	4cc]	ー
.	.	4d	.	4f	4b-	.	8gL	く	8gL	く
8r	.	.	.	.	.	.	[8ddJ	る	[8ddJ	る
=20	=20	=20	=20	=20	=20	=20	=20	=20	=20	=20
4.C	.	4.B-	.	4.d	4.f	.	4dd]	ー	4dd]	ー
.	.	.	.	.	.	.	8ee-L	な	8ee-L	な
2C	.	4.c	.	4.e-	4.g	.	[8ccJ	ら	[8ccJ	ら
.	.	.	.	.	.	.	4cc]	ー	4cc]	ー
.	.	4B-	.	4d	4f	.	16e-LL	な	16e-LL	な
.	.	.	.	.	.	.	16f	に	16f	に
8r	.	.	.	.	.	.	16g	も	16g	も
.	.	.	.	.	.	.	[16gJJ	い	[16gJJ	い
=21	=21	=21	=21	=21	=21	=21	=21	=21	=21	=21
4.AA-	.	4.c	.	4.e-	4.a-	.	8gL]	ー	8gL]	ー
.	.	.	.	.	.	.	8a-J	ら	8a-J	ら
.	.	.	.	.	.	.	8gL	な	8gL	な
2C	.	4.d	.	4.f	4.b-	.	16fL	い	16fL	い
.	.	.	.	.	.	.	16fJJ	よ	16fJJ	よ
.	.	.	.	.	.	.	16r	.	16r	.
.	.	.	.	.	.	.	8e-L	た	8e-L	た
.	.	.	.	.	.	.	[16dJk	だ	[16dJk	だ
.	.	4d	.	4f	4b-	.	8dL]	.	8dL]	.
8r	.	.	.	.	.	.	8e-J	き	8e-J	き
=22	=22	=22	=22	=22	=22	=22	=22	=22	=22	=22
2EE-	.	8r	.	4r	4.r	.	4f	み	4f	み
.	.	4.B-	.	.	.	.	.	.	.	.
.	.	.	.	4e-	.	.	8r	.	8r	.
.	.	.	.	.	8g	.	8g	だ	8g	だ
4r	.	4r	.	4r	4r	.	4b-	け	4b-	け
8EE-L	.	4B-	.	4e-	4g	.	4e-	に	4e-	に
16FFL	.	.	.	.	.	.	.	.	.	.
16GGJJ	.	.	.	.	.	.	.	.	.	.
=23	=23	=23	=23	=23	=23	=23	=23	=23	=23	=23
4.AA-	.	4.c	.	4.e-	4.a-	.	8r	.	8r	.
.	.	.	.	.	.	.	[8cc	わ	[8cc	わ
.	.	.	.	.	.	.	16ccKL]	ー	16ccKL]	ー
.	.	.	.	.	.	.	8.ddJ	ら	8.ddJ	ら
2BB-	.	4.d	.	4.f	4.b-	.	.	.	.	.
.	.	.	.	.	.	.	8.ee-L	っ	8.ee-L	っ
.	.	.	.	.	.	.	[16ddJk	て	[16ddJk	て
.	.	4d	.	4f	4b-	.	8ddL]	ー	8ddL]	ー
8r	.	.	.	.	.	.	8b-J	て	8b-J	て
=24	=24	=24	=24	=24	=24	=24	=24	=24	=24	=24
4.BB-	.	4.f	.	4.b-	4.dd	.	8rdd	.	8rdd	.
.	.	.	.	.	.	.	[8dd	ほ	[8dd	ほ
.	.	.	.	.	.	.	16ddKL]	ー	16ddKL]	ー
.	.	.	.	.	.	.	8.ee-J	し	8.ee-J	し
[4.C	.	[4.g	.	[4.cc	[4.ee-	.	.	.	.	.
.	.	.	.	.	.	.	8.ffL	い	8.ffL	い
.	.	.	.	.	.	.	[16ggJk	か	[16ggJk	か
4C]	.	4g]	.	4cc]	4ee-]	.	8ggL]	ー	8ggL]	ー
.	.	.	.	.	.	.	8ee-J	ら	8ee-J	ら
=25	=25	=25	=25	=25	=25	=25	=25	=25	=25	=25
2FF	.	4r	.	2a-	2cc	.	4r	.	4r	.
.	.	4g	.	.	.	.	4b-	い	4b-	い
2GG	.	4c	.	2b-	2dd	.	4e-	つ	4e-	つ
.	.	4g	.	.	.	.	4b-	で	4b-	で
=26	=26	=26	=26	=26	=26	=26	=26	=26	=26	=26
2.C	.	[4e-	.	2.e-	2.g	.	[4g	も	[4g	も
.	.	8e-L]	.	.	.	.	8gL]	ー	8gL]	ー
.	.	16dL	.	.	.	.	16fL	.	16fL	.
.	.	[16cJJ	.	.	.	.	[16e-JJ	.	[16e-JJ	.
.	.	4c]	.	.	.	.	4e-]	.	4e-]	.
4r	.	4r	.	4r	4r	.	4r	.	4r	.
=27	=27	=27	=27	=27	=27	=27	=27	=27	=27	=27
*MM105	*	*MM105	*	*MM105	*MM105	*	*MM105	*	*MM105	*
1r	.	1r	.	1r	1r	.	1r	.	1r	.
=28	=28	=28	=28	=28	=28	=28	=28	=28	=28	=28
4.AA-	.	4.c	.	4.e-	4.a-	.	8r	.	8r	.
.	.	.	.	.	.	.	16gLL	い	16gLL	い
.	.	.	.	.	.	.	16gJJ	わ	16gJJ	わ
.	.	.	.	.	.	.	16gLL	な	16gLL	な
.	.	.	.	.	.	.	16e-	い	16e-	い
4.BB-	.	[2d	.	[2f	[2b-	.	16e-	で	16e-	で
.	.	.	.	.	.	.	[16e-JJ	よ	[16e-JJ	よ
.	.	.	.	.	.	.	4e-]	ー	4e-]	ー
8r	.	.	.	.	.	.	8r	.	8r	.
16AA-LL	.	8d]	.	8f]	8b-]	.	16e-LL	ま	16e-LL	ま
16BB-JJ	.	.	.	.	.	.	16dJJ	だ	16dJJ	だ
=29	=29	=29	=29	=29	=29	=29	=29	=29	=29	=29
4.C	.	4.B-	.	4.d	4.g	.	16r	.	16r	.
.	.	.	.	.	.	.	8e-L	もっ	8e-L	もっ
.	.	.	.	.	.	.	[16dJk	と	[16dJk	と
.	.	.	.	.	.	.	8d]	ー	8d]	ー
4.C	.	[2B-	.	[2e-	[2g	.	16r	.	16r	.
.	.	.	.	.	.	.	16e-	き	16e-	き
.	.	.	.	.	.	.	16dLL	み	16dLL	み
.	.	.	.	.	.	.	16e-	に	16e-	に
.	.	.	.	.	.	.	16d	ふ	16d	ふ
.	.	.	.	.	.	.	16e-JJ	れ	16e-JJ	れ
8r	.	.	.	.	.	.	16dLL	て	16dLL	て
.	.	.	.	.	.	.	16e-	た	16e-	た
16CLL	.	8B-]	.	8e-]	8g]	.	16d	い	16d	い
16BB-JJ	.	.	.	.	.	.	16cJJ	よ	16cJJ	よ
=30	=30	=30	=30	=30	=30	=30	=30	=30	=30	=30
4.AA-	.	4.c	.	4.e-	4.a-	.	8r	.	8r	.
.	.	.	.	.	.	.	16gLL	く	16gLL	く
.	.	.	.	.	.	.	16gJJ	ち	16gJJ	ち
.	.	.	.	.	.	.	8gL	にし	8gL	にし
4BB-	.	[2d	.	[2f	[2b-	.	16e-L	た	16e-L	た
.	.	.	.	.	.	.	[16e-JJ	ら	[16e-JJ	ら
.	.	.	.	.	.	.	8e-]	ー	8e-]	ー
8BB-L	.	.	.	.	.	.	16r	.	16r	.
.	.	.	.	.	.	.	16e-	な	16e-	な
8AA-	.	.	.	.	.	.	16dKL	に	16dKL	に
.	.	.	.	.	.	.	8f	か	8f	か
8GGJ	.	8d]	.	8f]	8b-]	.	.	.	.	.
.	.	.	.	.	.	.	[16fJk	こ	[16fJk	こ
=31	=31	=31	=31	=31	=31	=31	=31	=31	=31	=31
1EE-	.	4B-	.	4e-	4a-	ha	8fL]	ー	8fL]	ー
.	.	.	.	.	.	.	8e-J	ー	8e-J	ー
.	.	4B-	.	4e-	4g	a-	16e-KL	わ	16e-KL	わ
.	.	.	.	.	.	.	8b-	れ	8b-	れ
.	.	.	.	.	.	.	[16b-Jk	そ	[16b-Jk	そ
.	.	4e-	.	4g	4b-	a	8b-L]	ー	8b-L]	ー
.	.	.	.	.	.	.	8gJ	う	8gJ	う
.	.	4d	.	4g	4b-	a	4g	で	4g	で
=32	=32	=32	=32	=32	=32	=32	=32	=32	=32	=32
2.AA-	.	4r	.	4r	2.a-	.	4r	.	4r	.
.	.	4f	.	4a-	.	.	4cc	つ	4cc	つ
.	.	4g	.	4b-	.	.	4dd	な	4dd	な
8r	.	8a-L	.	8ccL	8r	.	8ee-L	い	8ee-L	い
[8C	.	[8gJ	.	[8b-J	[8cc	.	[8ddJ	で	[8ddJ	で
=33	=33	=33	=33	=33	=33	=33	=33	=33	=33	=33
4C]	.	4g]	.	4b-]	4cc]	.	4dd]	ー	4dd]	ー
8r	.	8r	.	8r	8r	.	8r	.	8r	.
[8C	.	[8e-	.	[8g	[8cc	.	[8b-	る	[8b-	る
2C]	.	4e-]	.	4g]	4cc]	.	4b-]	ー	4b-]	ー
.	.	4r	.	4r	4r	.	8r	.	8r	.
.	.	.	.	.	.	.	8e-	ての	8e-	ての
=34	=34	=34	=34	=34	=34	=34	=34	=34	=34	=34
2AA-	.	2c	.	2e-	2a-	.	8b-L	ぬ	8b-L	ぬ
.	.	.	.	.	.	.	16b-L	く	16b-L	く
.	.	.	.	.	.	.	[16b-JJ	も	[16b-JJ	も
.	.	.	.	.	.	.	8b-L]	ー	8b-L]	ー
.	.	.	.	.	.	.	8gJ	り	8gJ	り
2BB-	.	2d	.	2f	2b-	.	8fL	だ	8fL	だ
.	.	.	.	.	.	.	8e-	け	8e-	け
.	.	.	.	.	.	.	8f	た	8f	た
.	.	.	.	.	.	.	8e-J	し	8e-J	し
=35	=35	=35	=35	=35	=35	=35	=35	=35	=35	=35
1GG	.	4g	.	1d	1g	.	4g	か	4g	か
.	.	4g	.	.	.	.	4g	め	4g	め
.	.	4e-	.	.	.	.	4cc	て	4cc	て
.	.	4f	.	.	.	.	4dd	た	4dd	た
=36	=36	=36	=36	=36	=36	=36	=36	=36	=36	=36
4.AA-	.	8.gL	.	4.c	4.f	.	8.b-L	と	8.b-L	と
.	.	[16fJk	.	.	.	.	[16a-Jk	ま	[16a-Jk	ま
.	.	8fL]	.	.	.	.	8a-L]	ー	8a-L]	ー
4.BB-	.	8e-J	.	[4.d	[4.g	.	8gJ	ら	8gJ	ら
.	.	8.dL	.	.	.	.	8.fL	な	8.fL	な
.	.	[16e-Jk	.	.	.	.	[16gJk	い	[16gJk	い
8r	.	8e-L]	.	4d]	4g]	.	8gL]	ー	8gL]	ー
16AA-LL	.	8dJ	.	.	.	.	8fJ	じ	8fJ	じ
16BB-JJ	.	.	.	.	.	.	.	.	.	.
=37	=37	=37	=37	=37	=37	=37	=37	=37	=37	=37
4.C	.	8.dL	.	4.e-	4.g	.	8.fL	かん	8.fL	かん
.	.	[16e-Jk	.	.	.	.	[16gJk	が	[16gJk	が
.	.	8e-L]	.	.	.	.	8gL]	ー	8gL]	ー
4.C	.	8dJ	.	[4.d	[4.g	.	8fJ	い	8fJ	い
.	.	8.dL	.	.	.	.	8.fL	つ	8.fL	つ
.	.	16e-Jk	.	.	.	.	16gJk	か	16gJk	か
8r	.	8r	.	4d]	4g]	.	8r	.	8r	.
16CLL	.	8B-	.	.	.	.	8d	ふ	8d	ふ
16BB-JJ	.	.	.	.	.	.	.	.	.	.
=38	=38	=38	=38	=38	=38	=38	=38	=38	=38	=38
4.AA-	.	8.gL	.	4.c	4.e-	.	8.b-L	た	8.b-L	た
.	.	[16fJk	.	.	.	.	[16a-Jk	り	[16a-Jk	り
.	.	8fL]	.	.	.	.	8a-L]	ー	8a-L]	ー
4BB-	.	8e-J	.	[4.d	[4.g	.	8gJ	ひ	8gJ	ひ
.	.	8.dL	.	.	.	.	8.fL	き	8.fL	き
8BB-L	.	.	.	.	.	.	.	.	.	.
.	.	[16e-Jk	.	.	.	.	[16gJk	は	[16gJk	は
8AA-	.	8e-L]	.	4d]	4g]	.	8gL]	ー	8gL]	ー
8GGJ	.	8dJ	.	.	.	.	8fJ	な	8fJ	な
=39	=39	=39	=39	=39	=39	=39	=39	=39	=39	=39
4EE-	.	4d	.	4e-	4g	.	4f	す	4f	す
8r	.	8r	.	8r	8r	.	8r	.	8r	.
4.EE-	.	8b-	.	4.g	4.b-	.	8dd	な	8dd	な
.	.	4b-	.	.	.	.	4dd	ら	4dd	ら
8FFL	.	4r	.	4r	4r	.	4r	.	4r	.
8GGJ	.	.	.	.	.	.	.	.	.	.
=40	=40	=40	=40	=40	=40	=40	=40	=40	=40	=40
4.AA-	.	1r	.	4.c	4.e-	.	8b-L	もっ	8b-L	もっ
.	.	.	.	.	.	.	16b-L	と	16b-L	と
.	.	.	.	.	.	.	[16b-JJ	き	[16b-JJ	き
.	.	.	.	.	.	.	16b-KL]	ー	16b-KL]	ー
.	.	.	.	.	.	.	8e-	み	8e-	み
4.BB-	.	.	.	[4.d	[4.f	.	.	.	.	.
.	.	.	.	.	.	.	[16dJk	み	[16dJk	み
.	.	.	.	.	.	.	16dKL]	ー	16dKL]	ー
.	.	.	.	.	.	.	8e-	て	8e-	て
.	.	.	.	.	.	.	16e-Jk	た	16e-Jk	た
8BB-L	.	.	.	4d]	4f]	.	8dL	い	8dL	い
8BBnJ	.	.	.	.	.	.	8e-J	よ	8e-J	よ
=41	=41	=41	=41	=41	=41	=41	=41	=41	=41	=41
4.C	.	8b-L	ずっ	4.e-	4.g	.	1r	.	8b-L	ずっ
.	.	16b-L	と	.	.	.	.	.	16b-L	と
.	.	[16b-JJ	だ	.	.	.	.	.	[16b-JJ	だ
.	.	16b-KL]	ー	.	.	.	.	.	16b-KL]	ー
.	.	8e-	き	.	.	.	.	.	8e-	き
4.C	.	.	.	[4.g	[4.b-	.	.	.	.	.
.	.	[16e-Jk	し	.	.	.	.	.	[16e-Jk	し
.	.	16e-KL]	ー	.	.	.	.	.	16e-KL]	ー
.	.	8e-	め	.	.	.	.	.	8e-	め
.	.	16e-Jk	て	.	.	.	.	.	16e-Jk	て
8CL	.	8gL	た	4g]	4b-]	.	.	.	8gL	た
8BB-J	.	16fL	い	.	.	.	.	.	16fL	い
.	.	16e-JJ	よ	.	.	.	.	.	16e-JJ	よ
=42	=42	=42	=42	=42	=42	=42	=42	=42	=42	=42
1AA-	.	8r	.	4r	2r	.	8r	.	8r	.
.	.	[8e-	.	.	.	.	[8g	Time-	[8g	Time-
.	.	16e-KL]	.	2.c	.	.	16gKL]	.	16gKL]	.
.	.	8.fJ	.	.	.	.	8.a-J	-is	8.a-J	-is
.	.	8.gL	.	.	2e-	.	8.b-L	slip-	8.b-L	slip-
.	.	[16cJk	.	.	.	.	[16e-Jk	.	[16e-Jk	.
.	.	8cL]	.	.	.	.	8e-L]	-ping	8e-L]	-ping
.	.	8cJ	.	.	.	.	8e-J	a	8e-J	a
=43	=43	=43	=43	=43	=43	=43	=43	=43	=43	=43
4GG	.	2e-	.	2.c	2.d	.	2g	way	2g	way
4GG	.	.	.	.	.	.	.	.	.	.
4GG	.	4r	.	.	.	.	4r	.	4r	.
4GG	.	4r	.	4r	4r	.	8gL	あ	8gL	あ
.	.	.	.	.	.	.	[8ddJ	し	[8ddJ	し
=44	=44	=44	=44	=44	=44	=44	=44	=44	=44	=44
4.AA-	.	4.c	.	4.e-	4.a-	.	4dd]	ー	4dd]	ー
.	.	.	.	.	.	.	8ee-L	た	8ee-L	た
4.BB-	.	4.d	.	4.f	4.b-	.	[8ccJ	が	[8ccJ	が
.	.	.	.	.	.	.	4cc]	ー	4cc]	ー
8BB-L	.	4d	.	4f	4b-	.	8gL	く	8gL	く
8BBnJ	.	.	.	.	.	.	[8ddJ	る	[8ddJ	る
=45	=45	=45	=45	=45	=45	=45	=45	=45	=45	=45
4.C	.	4.B-	.	4.d	4.f	.	4dd]	ー	4dd]	ー
.	.	.	.	.	.	.	8ee-L	な	8ee-L	な
4.C	.	4.c	.	4.e-	4.g	.	[8ccJ	ら	[8ccJ	ら
.	.	.	.	.	.	.	4cc]	ー	4cc]	ー
8CL	.	4B-	.	4d	4f	.	16e-LL	な	16e-LL	な
.	.	.	.	.	.	.	16f	に	16f	に
8BB-J	.	.	.	.	.	.	16g	も	16g	も
.	.	.	.	.	.	.	[16gJJ	い	[16gJJ	い
=46	=46	=46	=46	=46	=46	=46	=46	=46	=46	=46
4.AA-	.	4.c	.	4.e-	4.a-	.	8gL]	ら	8gL]	ら
.	.	.	.	.	.	.	8a-J	な	8a-J	な
.	.	.	.	.	.	.	8gL	い	8gL	い
4.C	.	4.d	.	4.f	4.b-	.	16fL	よ	16fL	よ
.	.	.	.	.	.	.	16fJJ	.	16fJJ	.
.	.	.	.	.	.	.	16r	.	16r	.
.	.	.	.	.	.	.	8e-L	た	8e-L	た
.	.	.	.	.	.	.	[16dJk	だ	[16dJk	だ
8AA-L	.	4d	.	4f	4b-	.	8dL]	き	8dL]	き
8GGJ	.	.	.	.	.	.	8e-J	み	8e-J	み
=47	=47	=47	=47	=47	=47	=47	=47	=47	=47	=47
2EE-	.	8r	.	4r	4.r	.	4f	ー	4f	ー
.	.	4.B-	.	.	.	.	.	.	.	.
.	.	.	.	4e-	.	.	8r	.	8r	.
.	.	.	.	.	8g	.	8g	だ	8g	だ
4r	.	4r	.	4r	4r	.	4b-	け	4b-	け
8EE-L	.	4B-	.	4e-	4g	.	4e-	に	4e-	に
16FFL	.	.	.	.	.	.	.	.	.	.
16GGJJ	.	.	.	.	.	.	.	.	.	.
=48	=48	=48	=48	=48	=48	=48	=48	=48	=48	=48
4.AA-	.	4.c	.	4.e-	4.a-	.	8r	.	8r	.
.	.	.	.	.	.	.	[8cc	わ	[8cc	わ
.	.	.	.	.	.	.	16ccKL]	ら	16ccKL]	ら
.	.	.	.	.	.	.	8.ddJ	っ	8.ddJ	っ
4.BB-	.	4.d	.	4.f	4.b-	.	.	.	.	.
.	.	.	.	.	.	.	8.ee-L	ー	8.ee-L	ー
.	.	.	.	.	.	.	[16ddJk	て	[16ddJk	て
8BB-L	.	4d	.	4f	4b-	.	8ddL]	ー	8ddL]	ー
8BBnJ	.	.	.	.	.	.	8b-J	て	8b-J	て
=49	=49	=49	=49	=49	=49	=49	=49	=49	=49	=49
4.C	.	4.f	.	4.b-	4.dd	.	8rdd	.	8rdd	.
.	.	.	.	.	.	.	[8dd	ほ	[8dd	ほ
.	.	.	.	.	.	.	16ddKL]	ー	16ddKL]	ー
.	.	.	.	.	.	.	8.ee-J	し	8.ee-J	し
4.C	.	[4.g	.	[4.cc	[4.ee-	.	.	.	.	.
.	.	.	.	.	.	.	8.ffL	い	8.ffL	い
.	.	.	.	.	.	.	[16ggJk	か	[16ggJk	か
8CL	.	4g]	.	4cc]	4ee-]	.	8ggL]	ー	8ggL]	ー
8AA-J	.	.	.	.	.	.	8ee-J	ら	8ee-J	ら
=50	=50	=50	=50	=50	=50	=50	=50	=50	=50	=50
2FF	.	4r	.	2a-	2cc	.	4r	.	4r	.
.	.	4g	.	.	.	.	4b-	い	4b-	い
2GG	.	4c	.	2b-	2dd	.	4e-	つ	4e-	つ
.	.	4g	.	.	.	.	4b-	で	4b-	で
=51	=51	=51	=51	=51	=51	=51	=51	=51	=51	=51
4AA-	.	[4e-	.	2.e-	2.a-	.	[4g	も	[4g	も
4AA-	.	8e-L]	.	.	.	.	8gL]	ー	8gL]	ー
.	.	16dL	.	.	.	.	16fL	.	16fL	.
.	.	[16cJJ	.	.	.	.	[16e-JJ	.	[16e-JJ	.
8AA-L	.	4c]	.	.	.	.	4e-]	.	4e-]	.
8AA-J	.	.	.	.	.	.	.	.	.	.
8AA-L	.	4r	.	4r	4r	.	16r	.	16r	.
.	.	.	.	.	.	.	8cL	き	8cL	き
16AA-L	.	.	.	.	.	.	.	.	.	.
16AA-JJ	.	.	.	.	.	.	16cJk	み	16cJk	み
=52	=52	=52	=52	=52	=52	=52	=52	=52	=52	=52
2C	.	4e-	.	4g	4cc	.	8.e-L	に	8.e-L	に
.	.	.	.	.	.	.	[16e-Jk	あ	[16e-Jk	あ
.	.	4r	.	4r	4r	.	16e-KL]	う	16e-KL]	う
.	.	.	.	.	.	.	8d	た	8d	た
.	.	.	.	.	.	.	[16e-Jk	め	[16e-Jk	め
2BB-	.	4d	.	4g	4cc	.	16e-KL]	だ	16e-KL]	だ
.	.	.	.	.	.	.	8f	け	8f	け
.	.	.	.	.	.	.	16gJk	に	16gJk	に
.	.	4r	.	4r	4r	.	16r	.	16r	.
.	.	.	.	.	.	.	8cL	うま	8cL	うま
.	.	.	.	.	.	.	16cJk	れ	16cJk	れ
=53	=53	=53	=53	=53	=53	=53	=53	=53	=53	=53
2AA-	.	4c	.	4e-	4a-	.	8e-L	て	8e-L	て
.	.	.	.	.	.	.	16dL	き	16dL	き
.	.	.	.	.	.	.	[16e-JJ	た	[16e-JJ	た
.	.	4r	.	4r	4r	.	16e-KL]	ー	16e-KL]	ー
.	.	.	.	.	.	.	8d	の	8d	の
.	.	.	.	.	.	.	[16e-Jk	な	[16e-Jk	な
2GG	.	4B-	.	4d	4g	.	16e-KL]	ー	16e-KL]	ー
.	.	.	.	.	.	.	8f	ら	8f	ら
.	.	.	.	.	.	.	[16b-Jk	や	[16b-Jk	や
.	.	4r	.	4r	4r	.	16b-KL]	ー	16b-KL]	ー
.	.	.	.	.	.	.	8b-	き	8b-	き
.	.	.	.	.	.	.	[16ccJk	つ	[16ccJk	つ
=54	=54	=54	=54	=54	=54	=54	=54	=54	=54	=54
4.FF	.	4.c	.	4.e-	4.a-	.	16ccKL]	ー	16ccKL]	ー
.	.	.	.	.	.	.	8b-	け	8b-	け
.	.	.	.	.	.	.	[16g-XJk	た	[16g-XJk	た
.	.	.	.	.	.	.	16g-KL]	ー	16g-KL]	ー
.	.	.	.	.	.	.	8f	.	8f	.
[4.BB-	.	[4.B-	.	[4.d	[4.a-	.	.	.	.	.
.	.	.	.	.	.	.	[16fJk	い	[16fJk	い
.	.	.	.	.	.	.	16fKL]	eve-	16fKL]	eve-
.	.	.	.	.	.	.	8e-	.	8e-	.
.	.	.	.	.	.	.	[16cJk	-ry	[16cJk	-ry
8BB-]	.	8B-]	.	8d]	8a-]	.	16cLL]	mo-	16cLL]	mo-
.	.	.	.	.	.	.	16e-J	.	16e-J	.
8r	.	8r	.	8r	8r	.	8cJ	-ment	8cJ	-ment
=55	=55	=55	=55	=55	=55	=55	=55	=55	=55	=55
2r	.	4f	.	2r	2r	.	4a-	in	4a-	in
.	.	8gL	.	.	.	.	8b-L	my-	8b-L	my-
.	.	8eJ	.	.	.	.	8gJ	.	8gJ	.
4r	.	4.e	.	4r	4r	.	4.g	-heart	4.g	-heart
4C	.	.	.	4g	4b-	.	.	.	.	.
.	.	16B-LL	い	.	.	.	8r	.	16B-LL	い
.	.	16B-JJ	ち	.	.	.	.	.	16B-JJ	ち
=56	=56	=56	=56	=56	=56	=56	=56	=56	=56	=56
8.FFL	.	8.gL	びょう	8.cL	8.a-L	.	8.fL	.	8.gL	びょう
16FFJk	.	[16a-Jk	で	16cJk	16a-Jk	.	16fJk	.	[16a-Jk	で
4r	.	8a-L]	ー	4r	4r	.	4r	.	8a-L]	ー
.	.	8cJ	も	.	.	.	.	.	8cJ	も
8.BB-L	.	8.gL	い	8.dL	8.b-L	.	8.fL	.	8.gL	い
16BB-Jk	.	[16fJk	い	16dJk	16b-Jk	.	16fJk	.	[16fJk	い
4r	.	8fL]	ー	4r	4r	.	4r	.	8fL]	ー
.	.	8e-J	あ	.	.	.	.	.	8e-J	あ
=57	=57	=57	=57	=57	=57	=57	=57	=57	=57	=57
8.GGL	.	8.dL	と	8.B-L	8.fL	.	8.dL	.	8.dL	と
16GGJk	.	[16e-Jk	す	16B-Jk	16fJk	.	16dJk	.	[16e-Jk	す
4r	.	8e-L]	ー	4r	4r	.	4r	.	8e-L]	ー
.	.	8b-J	こ	.	.	.	.	.	8b-J	こ
8.CL	.	4g	し	8.cL	8.gL	.	8.e-L	.	4g	し
16CJk	.	.	.	16cJk	16gJk	.	16e-Jk	.	.	.
4r	.	8r	.	4r	4r	.	8r	.	8r	.
.	.	16A-LL	.	.	.	.	16e-LL	き	16e-LL	き
.	.	16A-JJ	.	.	.	.	16e-JJ	み	16e-JJ	み
=58	=58	=58	=58	=58	=58	=58	=58	=58	=58	=58
2AA-	.	8.e-L	.	2e-	2g	.	8.b-L	の	8.b-L	の
.	.	[16e-Jk	.	.	.	.	[16b-Jk	そ	[16b-Jk	そ
.	.	8e-L]	.	.	.	.	8b-L]	ー	8b-L]	ー
.	.	8e-J	.	.	.	.	8b-J	ば	8b-J	ば
4AA-	.	8dL	.	4c	4f	.	8a-L	に	8a-L	に
.	.	8c	.	.	.	.	8g	い	8g	い
4FF	.	8c	.	4c	4a-	.	8g	さ	8g	さ
.	.	8dJ	.	.	.	.	8a-J	せ	8a-J	せ
=59	=59	=59	=59	=59	=59	=59	=59	=59	=59	=59
1r	.	2.f	.	1r	2.r	.	2.cc	て	2.cc	て
.	.	4r	.	.	8gL	あ	4r	.	8gL	あ
.	.	.	.	.	[8ddJ	し	.	.	[8ddJ	し
=60	=60	=60	=60	=60	=60	=60	=60	=60	=60	=60
1r	.	1r	.	1r	4dd]	ー	1r	.	4dd]	ー
.	.	.	.	.	8ee-L	た	.	.	8ee-L	た
.	.	.	.	.	[8ccJ	が	.	.	[8ccJ	が
.	.	.	.	.	4cc]	ー	.	.	4cc]	ー
.	.	.	.	.	8gL	く	.	.	8gL	く
.	.	.	.	.	[8ddJ	る	.	.	[8ddJ	る
=61	=61	=61	=61	=61	=61	=61	=61	=61	=61	=61
1r	.	1r	.	1r	4dd]	ー	1r	.	4dd]	ー
.	.	.	.	.	8ee-L	な	.	.	8ee-L	な
.	.	.	.	.	[8ccJ	ら	.	.	[8ccJ	ら
.	.	.	.	.	4cc]	ー	.	.	4cc]	ー
.	.	.	.	.	16e-LL	な	.	.	16e-LL	な
.	.	.	.	.	16f	に	.	.	16f	に
.	.	.	.	.	16g	も	.	.	16g	も
.	.	.	.	.	[16gJJ	い	.	.	[16gJJ	い
=62	=62	=62	=62	=62	=62	=62	=62	=62	=62	=62
1r	.	1r	.	1r	8gL]	ー	1r	.	8gL]	ー
.	.	.	.	.	8a-J	ら	.	.	8a-J	ら
.	.	.	.	.	8gL	な	.	.	8gL	な
.	.	.	.	.	16fL	い	.	.	16fL	い
.	.	.	.	.	16fJJ	よ	.	.	16fJJ	よ
.	.	.	.	.	16r	.	.	.	16r	.
.	.	.	.	.	8e-L	た	.	.	8e-L	た
.	.	.	.	.	[16dJk	だ	.	.	[16dJk	だ
.	.	.	.	.	8dL]	ー	.	.	8dL]	ー
.	.	.	.	.	8e-J	き	.	.	8e-J	き
=63	=63	=63	=63	=63	=63	=63	=63	=63	=63	=63
2.r	.	1r	.	1r	4f	み	1r	.	4f	み
.	.	.	.	.	8r	.	.	.	8r	.
.	.	.	.	.	8g	だ	.	.	8g	だ
.	.	.	.	.	4b-	け	.	.	4b-	け
8EE-L	.	.	.	.	4e-	に	.	.	4e-	に
8GGJ	.	.	.	.	.	.	.	.	.	.
=64	=64	=64	=64	=64	=64	=64	=64	=64	=64	=64
4AA-	.	1c	.	1e-	8r	.	1a-	.	8r	.
.	.	.	.	.	[8cc	わ	.	.	[8cc	わ
4AA-	.	.	.	.	16ccKL]	ー	.	.	16ccKL]	ー
.	.	.	.	.	8.ddJ	ら	.	.	8.ddJ	ら
4AA-	.	.	.	.	8.ee-L	っ	.	.	8.ee-L	っ
.	.	.	.	.	[16ddJk	て	.	.	[16ddJk	て
4AA-	.	.	.	.	8ddL]	ー	.	.	8ddL]	ー
.	.	.	.	.	8b-J	て	.	.	8b-J	て
=65	=65	=65	=65	=65	=65	=65	=65	=65	=65	=65
4BB-	.	1d	.	1f	8rdd	.	1a-	.	8rdd	.
.	.	.	.	.	[8dd	ほ	.	.	[8dd	ほ
4BB-	.	.	.	.	16ddKL]	ー	.	.	16ddKL]	ー
.	.	.	.	.	8.ee-J	し	.	.	8.ee-J	し
4BB-	.	.	.	.	8.ffL	い	.	.	8.ffL	い
.	.	.	.	.	[16ggJk	か	.	.	[16ggJk	か
4BB-	.	.	.	.	8ggL]	ー	.	.	8ggL]	ー
.	.	.	.	.	8ee-J	ら	.	.	8ee-J	ら
=66	=66	=66	=66	=66	=66	=66	=66	=66	=66	=66
4r	.	4r	.	4r	4r	.	4r	.	4r	.
4FF	.	4f	.	4a-	4cc	.	4cc	for-	4cc	for-
4FF	.	4f	.	4a-	4cc	.	4cc	-ev-	4cc	-ev-
8GGL	.	8gL	.	8b-L	8ddL	.	8ddL	-er	8ddL	-er
[8AA-J	.	[8a-J	.	[8ccJ	[8ee-J	.	[8ee-J	more-	[8ee-J	more-
=67	=67	=67	=67	=67	=67	=67	=67	=67	=67	=67
4.AA-]	.	4.a-]	.	4.cc]	4.ee-]	.	4.ee-]	.	4.ee-]	.
8BB-	.	8b-	.	8dd	8ff	.	8ff	.	8ff	.
2r	.	2r	.	2r	2r	.	4r	.	4r	.
.	.	.	.	.	.	.	8gL	あ	8gL	あ
.	.	.	.	.	.	.	[8ddJ	し	[8ddJ	し
=68	=68	=68	=68	=68	=68	=68	=68	=68	=68	=68
4r	.	4r	.	4r	4r	.	4dd]	ー	4dd]	ー
4.AA-	.	4.e-	.	4.a-	4.cc	.	8ee-L	た	8ee-L	た
.	.	.	.	.	.	.	[8ccJ	が	[8ccJ	が
.	.	.	.	.	.	.	4cc]	ー	4cc]	ー
8.BB-L	.	8.fL	.	8.b-L	8.ddL	.	.	.	.	.
.	.	.	.	.	.	.	8gL	く	8gL	く
8BB-J	.	8fJ	.	8b-J	8ddJ	.	.	.	.	.
.	.	.	.	.	.	.	[8ddJ	る	[8ddJ	る
16r	.	16r	.	16r	16r	.	.	.	.	.
=69	=69	=69	=69	=69	=69	=69	=69	=69	=69	=69
4r	.	4r	.	4r	4r	.	4dd]	ー	4dd]	ー
4C	.	4g	.	4b-	4dd	.	8ee-L	な	8ee-L	な
.	.	.	.	.	.	.	[8ccJ	ら	[8ccJ	ら
4C	.	4g	.	4cc	4ee-	.	4cc]	ー	4cc]	ー
8CL	.	4f	.	4g	4cc	.	16e-LL	な	16e-LL	な
.	.	.	.	.	.	.	16f	に	16f	に
8CJ	.	.	.	.	.	.	16g	も	16g	も
.	.	.	.	.	.	.	[16gJJ	い	[16gJJ	い
=70	=70	=70	=70	=70	=70	=70	=70	=70	=70	=70
4.AA-	.	4.c	.	4.e-	4.a-	.	8gL]	ー	8gL]	ー
.	.	.	.	.	.	.	8a-J	ら	8a-J	ら
.	.	.	.	.	.	.	8gL	な	8gL	な
8C	.	4.d	.	4.f	4.b-	.	16fL	い	16fL	い
.	.	.	.	.	.	.	16fJJ	よ	16fJJ	よ
8CL	.	.	.	.	.	.	16r	.	16r	.
.	.	.	.	.	.	.	8e-L	た	8e-L	た
8BB-J	.	.	.	.	.	.	.	.	.	.
.	.	.	.	.	.	.	[16dJk	ー	[16dJk	ー
8AA-L	.	4d	.	4f	4b-	.	8dL]	だ	8dL]	だ
16GGL	.	.	.	.	.	.	8e-J	き	8e-J	き
16FFJJ	.	.	.	.	.	.	.	.	.	.
=71	=71	=71	=71	=71	=71	=71	=71	=71	=71	=71
2EE-	.	8r	.	4r	4.r	.	4f	み	4f	み
.	.	4.B-	.	.	.	.	.	.	.	.
.	.	.	.	4e-	.	.	8r	.	8r	.
.	.	.	.	.	8g	.	8g	だ	8g	だ
4r	.	4r	.	4r	4r	.	4b-	け	4b-	け
8EE-L	.	4B-	.	4e-	4g	.	4e-	に	4e-	に
16FFL	.	.	.	.	.	.	.	.	.	.
16GGJJ	.	.	.	.	.	.	.	.	.	.
=72	=72	=72	=72	=72	=72	=72	=72	=72	=72	=72
4.AA-	.	4.c	.	4.e-	4.a-	.	8r	.	8r	.
.	.	.	.	.	.	.	[8cc	わ	[8cc	わ
.	.	.	.	.	.	.	16ccKL]	ー	16ccKL]	ー
.	.	.	.	.	.	.	8.ddJ	ら	8.ddJ	ら
4.BB-	.	4.d	.	4.f	4.b-	.	.	.	.	.
.	.	.	.	.	.	.	8.ee-L	っ	8.ee-L	っ
.	.	.	.	.	.	.	[16ddJk	て	[16ddJk	て
8BB-L	.	4d	.	4f	4b-	.	8ddL]	ー	8ddL]	ー
8BBnJ	.	.	.	.	.	.	8b-J	て	8b-J	て
=73	=73	=73	=73	=73	=73	=73	=73	=73	=73	=73
4.C	.	4.f	.	4.b-	4.dd	.	8rdd	.	8rdd	.
.	.	.	.	.	.	.	[8dd	ほ	[8dd	ほ
.	.	.	.	.	.	.	16ddKL]	ー	16ddKL]	ー
.	.	.	.	.	.	.	8.ee-J	し	8.ee-J	し
4.C	.	[4.g	.	[4.cc	[4.ee-	.	.	.	.	.
.	.	.	.	.	.	.	8.ffL	い	8.ffL	い
.	.	.	.	.	.	.	[16ggJk	か	[16ggJk	か
8CL	.	4g]	.	4cc]	4ee-]	.	8ggL]	ー	8ggL]	ー
8AA-J	.	.	.	.	.	.	8ee-J	ら	8ee-J	ら
=74	=74	=74	=74	=74	=74	=74	=74	=74	=74	=74
2FF	.	4r	.	2a-	2cc	.	4r	.	4r	.
.	.	4g	.	.	.	.	4b-	い	4b-	い
2GG	.	4c	.	2b-	2dd	.	4e-	つ	4e-	つ
.	.	4g	.	.	.	.	4b-	で	4b-	で
=75	=75	=75	=75	=75	=75	=75	=75	=75	=75	=75
2.C	.	4.e-	.	2.b-	2.ee-	.	4.g	も	4.g	も
.	.	16dLL	.	.	.	.	16fLL	ー	16fLL	ー
.	.	[16cJJ	.	.	.	.	[16e-JJ	.	[16e-JJ	.
.	.	4.c]	.	.	.	.	4.e-]	.	4.e-]	.
8r	.	.	.	4r	4r	.	.	.	.	.
*MM98	*	*MM98	*	*MM98	*MM98	*	*MM98	*	*MM98	*
8BB-	さ	8r	.	.	.	.	8r	.	8r	.
=76	=76	=76	=76	=76	=76	=76	=76	=76	=76	=76
4G	よ	1r	.	1r	1r	.	1r	.	1r	.
8B-L	な	.	.	.	.	.	.	.	.	.
[8GJ	ら	.	.	.	.	.	.	.	.	.
8GL_	ー	.	.	.	.	.	.	.	.	.
8GJ]	.	.	.	.	.	.	.	.	.	.
8r	.	.	.	.	.	.	.	.	.	.
8F	は	.	.	.	.	.	.	.	.	.
=77	=77	=77	=77	=77	=77	=77	=77	=77	=77	=77
8FL	い	1r	.	1r	1r	.	1r	.	1r	.
8E-	わ	.	.	.	.	.	.	.	.	.
8F	な	.	.	.	.	.	.	.	.	.
8E-J	い	.	.	.	.	.	.	.	.	.
8FL	で	.	.	.	.	.	.	.	.	.
8E-	お	.	.	.	.	.	.	.	.	.
8D	く	.	.	.	.	.	.	.	.	.
[8E-J	よ	.	.	.	.	.	.	.	.	.
=78	=78	=78	=78	=78	=78	=78	=78	=78	=78	=78
1E-]	.	1c	.	4r	2r	.	2.r	.	1r	.
.	.	.	.	2.f	.	.	.	.	.	.
.	.	.	.	.	2a-	.	.	.	.	.
.	.	.	.	.	.	.	4cc	.	.	.
=79	=79	=79	=79	=79	=79	=79	=79	=79	=79	=79
1EE-	.	1c	.	1f	1g	.	1cc	.	1r	.
==	==	==	==	==	==	==	==	==	==	==
*-	*-	*-	*-	*-	*-	*-	*-	*-	*-	*-
